svg/u1f19a.svg

<svg viewBox="0 0 128 128" xmlns="http://www.w3.org/2000/svg">
  <g>
    <path d="M116,4H12c-4.42,0-8,3.58-8,8v104c0,4.42,3.58,8,8,8h104c4.42,0,8-3.58,8-8V12 C124,7.58,120.42,4,116,4z" fill="#F77E00"/>
    <path d="M109.7,4H11.5C7.37,4.03,4.03,7.37,4,11.5v97.9c-0.01,4.14,3.34,7.49,7.48,7.5c0.01,0,0.01,0,0.02,0 h98.1c4.14,0.01,7.49-3.34,7.5-7.48c0-0.01,0-0.01,0-0.02V11.5c0.09-4.05-3.13-7.41-7.18-7.5C109.85,4,109.77,4,109.7,4z" fill="#FF9800"/>
    <path d="M39.7,12.9c0-2.3-1.6-3-10.8-2.7c-7.7,0.3-11.5,1.2-13.8,4 c-3.51,4.18-3,10.64-3.09,15.72c-0.14,1.24,0.39,2.46,1.39,3.2c1.18,0.47,2.53,0.24,3.49-0.6c2.07-1.5,3.28-3.91,4.18-6.3 c0.26-0.75,0.6-1.47,1-2.15c1.88-3,6.67-4.53,9.86-5.89C33.73,17.39,39.7,15.54,39.7,12.9z" opacity="0.75" fill="#FFBD52" enable-background="new "/>
    <g>
      <path d="M13.78,36.87h11.19l11.35,33.12l1.99,6.98h0.61l2.15-6.98l11.81-33.12h11.19L44.06,91.76H33.18 L13.78,36.87z" fill="#FAFAFA"/>
      <path d="M75.27,88.93c-3.68-2.71-6.26-6.54-7.74-11.5l9.74-3.83c0.77,2.91,2.07,5.24,3.91,6.98 c1.84,1.74,4.14,2.61,6.9,2.61c2.3,0,4.27-0.58,5.9-1.72c1.63-1.15,2.45-2.75,2.45-4.79c0-2.04-0.78-3.72-2.34-5.02 c-1.56-1.3-4.33-2.7-8.32-4.18l-3.37-1.23c-3.53-1.23-6.54-3.11-9.05-5.64c-2.5-2.53-3.76-5.71-3.76-9.54 c0-2.86,0.74-5.47,2.22-7.82c1.48-2.35,3.58-4.2,6.29-5.56c2.71-1.35,5.78-2.03,9.2-2.03c4.96,0,8.87,1.16,11.73,3.49 c2.86,2.33,4.83,5.05,5.9,8.17l-9.12,3.83c-0.56-1.69-1.55-3.1-2.95-4.26c-1.41-1.15-3.21-1.73-5.41-1.73 c-2.25,0-4.1,0.52-5.56,1.57c-1.46,1.05-2.18,2.42-2.18,4.1c0,1.64,0.69,3.03,2.07,4.18c1.38,1.15,3.65,2.26,6.82,3.33l3.45,1.15 c4.75,1.64,8.4,3.79,10.92,6.48c2.53,2.68,3.79,6.2,3.79,10.54c0,3.58-0.92,6.61-2.76,9.08c-1.84,2.48-4.21,4.33-7.09,5.56 c-2.89,1.23-5.87,1.84-8.93,1.84C83.19,92.99,78.95,91.64,75.27,88.93z" fill="#FAFAFA"/>
    </g>
  </g>
</svg>

<svg viewBox="0 0 128 128" xmlns="http://www.w3.org/2000/svg">
  <defs/>
  <path d="M116,4 L12,4 C7.58,4 4,7.58 4,12 L4,116 C4,120.42 7.58,124 12,124 L116,124 C120.42,124 124,120.42 124,116 L124,12 C124,7.58 120.42,4 116,4 Z" fill="#F77E00"/>
  <path d="M109.7,4 L11.5,4 C7.37,4.03 4.03,7.37 4,11.5 L4,109.4 C3.99,113.54 7.34,116.89 11.48,116.9 C11.49,116.9 11.49,116.9 11.5,116.9 L109.6,116.9 C113.74,116.91 117.09,113.56 117.1,109.42 C117.1,109.41 117.1,109.41 117.1,109.4 L117.1,11.5 C117.19,7.45 113.97,4.09 109.92,4 C109.85,4 109.77,4 109.7,4 Z" fill="#FF9800"/>
  <path d="M39.7,12.9 C39.7,10.6 38.1,9.9 28.9,10.2 C21.2,10.5 17.4,11.4 15.1,14.2 C11.59,18.38 12.1,24.84 12.01,29.92 C11.87,31.16 12.4,32.38 13.4,33.12 C14.58,33.59 15.93,33.36 16.89,32.52 C18.96,31.02 20.17,28.61 21.07,26.22 C21.33,25.47 21.67,24.75 22.07,24.07 C23.95,21.07 28.74,19.54 31.93,18.18 C33.73,17.39 39.7,15.54 39.7,12.9 Z" fill="#FFBD52" opacity="0.75"/>
  <path d="M13.78,36.87 L24.97,36.87 L36.32,69.99 L38.31,76.97 L38.92,76.97 L41.07,69.99 L52.88,36.87 L64.07,36.87 L44.06,91.76 L33.18,91.76 L13.78,36.87 Z" fill="#FAFAFA"/>
  <path d="M75.27,88.93 C71.59,86.22 69.01,82.39 67.53,77.43 L77.27,73.6 C78.04,76.51 79.34,78.84 81.18,80.58 C83.02,82.32 85.32,83.19 88.08,83.19 C90.38,83.19 92.35,82.61 93.98,81.47 C95.61,80.32 96.43,78.72 96.43,76.68 C96.43,74.64 95.65,72.96 94.09,71.66 C92.53,70.36 89.76,68.96 85.77,67.48 L82.4,66.25 C78.87,65.02 75.86,63.14 73.35,60.61 C70.85,58.08 69.59,54.9 69.59,51.07 C69.59,48.21 70.33,45.6 71.81,43.25 C73.29,40.9 75.39,39.05 78.1,37.69 C80.81,36.34 83.88,35.66 87.3,35.66 C92.26,35.66 96.17,36.82 99.03,39.15 C101.89,41.48 103.86,44.2 104.93,47.32 L95.81,51.15 C95.25,49.46 94.26,48.05 92.86,46.89 C91.45,45.74 89.65,45.16 87.45,45.16 C85.2,45.16 83.35,45.68 81.89,46.73 C80.43,47.78 79.71,49.15 79.71,50.83 C79.71,52.47 80.4,53.86 81.78,55.01 C83.16,56.16 85.43,57.27 88.6,58.34 L92.05,59.49 C96.8,61.13 100.45,63.28 102.97,65.97 C105.5,68.65 106.76,72.17 106.76,76.51 C106.76,80.09 105.84,83.12 104,85.59 C102.16,88.07 99.79,89.92 96.91,91.15 C94.02,92.38 91.04,92.99 87.98,92.99 C83.19,92.99 78.95,91.64 75.27,88.93 Z" fill="#FAFAFA"/>
</svg>
